!!!OTL: IN DES WALDES DUESTERN GRUENDEN
!!!ARE: Europa, Mitteleuropa, Deutschland
!!!SCT: F0855
!!!YEM: Copyright 1995, estate of Helmut Schaffrath.
**kern
*ICvox
*Ivox
*M4/4
*k[b-e-]
*B-:
{8f
8f
=1
4.b-
8b-
4f
4f
=2
4d
4B-
4r}
{8b-
8b-
=3
4a
4b-
4cc
4dd
=4
8cc
8ff
8een
8dd
4cc}
{8b-
8b-
=5
4.a
8b-
4cc
4cc
=6
2f
4r}
{8f
8f
=7
4.ee-
8cc
4.dd
8b-
=8
8dd
8cc
4cc
4r}
{8f
8f
=9
4.ee-
8cc
4.dd
8b-
=10
8dd
8cc
4cc
4r}
{8f
8f
=11
4b-
4b-
4cc
4cc
=12
4.ff
8dd
4b-}
{8b-
8b-
=13
4g
8ee-
8cc
4b-
4a
=14
2b-
4r}
==
!!!AGN: erzaehlendes Volks - Lied, Ballade, Raeuber
!!!ONB: ESAC (Essen Associative Code) Database: FINK
!!!AMT: simple quadruple
!!!AIN: vox
!!!EED: Helmut Schaffrath
!!!EEV: 1.0
*-
